X: 12
T: The Spring
%R: reel
B: "Twenty Four Country Dances for the Year 1780", Thomas Skillern, ed. p.6 #2
F: http://www.vwml.org/browse/browse-collections-dance-tune-books/browse-skillerns1780#
Z: 2014 John Chambers <jc:trillian.mit.edu>
M: 2/4
L: 1/16
K: G
|:\
g2dc B2AG | ABcA GFED |\
g2dc B2AG | D2F2G2G,2 :|
|:\
A2FD c2BA | d2cB A2D2 |\
g2dc B2AG | D2F2G2G,2 :|
%%begintext align
%%   Cast down one Cu. and swing
%% Partner .|. the same up again :|.
%% Cross over one Cu .|: Right &
%% Left at top :|:
%%endtext

%%sep 1 1 500
%%sep 1 1 500
